apps/praktika/stuff/social/vk.svg

<?xml version="1.0" encoding="UTF-8"?>
<svg width="20px" height="20px" viewBox="0 0 20 20" version="1.1" xmlns="http://www.w3.org/2000/svg" xmlns:xlink="http://www.w3.org/1999/xlink">
    <!-- Generator: Sketch 48.2 (47327) - http://www.bohemiancoding.com/sketch -->
    <title>Page 1 Copy 2</title>
    <desc>Created with Sketch.</desc>
    <defs>
        <polygon id="path-1" points="0 0 20 0 20 20 0 20"></polygon>
    </defs>
    <g id="desctop" stroke="none" stroke-width="1" fill="none" fill-rule="evenodd">
        <g id="Page-1-Copy-2">
            <mask id="mask-2" fill="white">
                <use xlink:href="#path-1"></use>
            </mask>
            <g id="Clip-2"></g>
            <path d="M16.1979376,14.0006121 L14.3700462,14.0261086 C14.3700462,14.0261086 13.9772363,14.1038512 13.4603178,13.7488282 C12.7767804,13.2796252 12.1318492,12.0593601 11.6294863,12.2186529 C11.1200384,12.3803556 11.1360881,13.4780545 11.1360881,13.4780545 C11.1360881,13.4780545 11.1397994,13.7124873 11.0236433,13.8374153 C10.8973176,13.9733805 10.650257,14.0006121 10.650257,14.0006121 L9.83220029,14.0006121 C9.83220029,14.0006121 8.02715449,14.1092493 6.43721428,12.4539051 C4.70350083,10.6487629 3.172458,7.06662586 3.172458,7.06662586 C3.172458,7.06662586 3.08416012,6.83180748 3.18012141,6.7181577 C3.28793929,6.59053063 3.58151046,6.58228885 3.58151046,6.58228885 L5.53726995,6.56951651 C5.53726995,6.56951651 5.72152911,6.60021833 5.85339756,6.69709538 C5.9621312,6.77710328 6.02300468,6.92646743 6.02300468,6.92646743 C6.02300468,6.92646743 6.3391323,7.72591991 6.75763148,8.44902749 C7.57472425,9.86082962 7.95529197,10.1696312 8.23262057,10.0183874 C8.63685328,9.79788365 8.51563648,8.02267212 8.51563648,8.02267212 C8.51563648,8.02267212 8.5230589,7.3783675 8.3120983,7.09135119 C8.14880506,6.86916057 7.84082283,6.8041421 7.70476119,6.78601982 C7.59467803,6.77127138 7.77532238,6.51587265 8.009466,6.40116252 C8.36140438,6.22875995 8.98281517,6.21902405 9.71720098,6.22654286 C10.2893539,6.23232657 10.4541413,6.26804094 10.677826,6.32207037 C11.3520131,6.48483344 11.1232676,7.11357026 11.1232676,8.62167106 C11.1232676,9.10446574 11.0361265,9.78390636 11.384691,10.0091334 C11.5344889,10.1058659 11.900983,10.0234963 12.8173627,8.46743895 C13.2516706,7.72982391 13.5775342,6.8627021 13.5775342,6.8627021 C13.5775342,6.8627021 13.6484809,6.70808441 13.7590943,6.6419574 C13.8722139,6.57423986 14.0249037,6.5950612 14.0249037,6.5950612 L16.0829383,6.58228885 C16.0829383,6.58228885 16.7013609,6.50854663 16.8014189,6.78770674 C16.9064896,7.08074774 16.5704082,7.76486352 15.7296022,8.88550435 C14.3489839,10.725638 14.1953301,10.5534764 15.3415639,11.6173405 C16.4365636,12.6337301 16.663574,13.1283814 16.7006861,13.1898332 C17.1540803,13.9415701 16.1979376,14.0006121 16.1979376,14.0006121 M16.9181052,0 L3.08184664,0 C1.37979897,0 0,1.37979897 0,3.08179844 L0,16.9181052 C0,18.6201528 1.37979897,20 3.08184664,20 L16.9181052,20 C18.6201528,20 20,18.6201528 20,16.9181052 L20,3.08179844 C20,1.37979897 18.6201528,0 16.9181052,0" id="Fill-1" fill="#000000" mask="url(#mask-2)"></path>
        </g>
    </g>
</svg>

<svg width="20" height="20" xmlns="http://www.w3.org/2000/svg" xmlns:xlink="http://www.w3.org/1999/xlink"><defs><path id="a" d="M0 0h20v20H0z"/></defs><g fill="none" fill-rule="evenodd"><mask id="b" fill="#fff"><use xlink:href="#a"/></mask><path d="M16.198 14l-1.828.026s-.393.078-.91-.277c-.683-.47-1.328-1.69-1.83-1.53-.51.161-.494 1.26-.494 1.26s.004.233-.112.358c-.127.136-.374.164-.374.164h-.818s-1.805.108-3.395-1.547c-1.733-1.805-3.265-5.387-3.265-5.387s-.088-.235.008-.349c.108-.127.402-.136.402-.136l1.955-.012s.185.03.316.127c.11.08.17.23.17.23s.316.799.735 1.522c.817 1.412 1.197 1.72 1.475 1.57.404-.221.283-1.996.283-1.996s.007-.645-.204-.932c-.163-.222-.471-.287-.607-.305-.11-.015.07-.27.304-.385.352-.172.974-.182 1.708-.174.572.005.737.041.96.095.675.163.446.792.446 2.3 0 .482-.087 1.162.262 1.387.15.097.516.014 1.432-1.542.435-.737.76-1.604.76-1.604s.071-.155.182-.221c.113-.068.266-.047.266-.047l2.058-.013s.618-.073.718.206c.105.293-.23.977-1.071 2.098-1.381 1.84-1.535 1.667-.388 2.731 1.095 1.017 1.322 1.511 1.359 1.573.453.752-.503.81-.503.81m.72-14H3.082A3.082 3.082 0 0 0 0 3.082v13.836A3.082 3.082 0 0 0 3.082 20h13.836A3.082 3.082 0 0 0 20 16.918V3.082A3.082 3.082 0 0 0 16.918 0" fill="#000" mask="url(#b)"/></g></svg>
